icons/linear-new-tool-edit-gear-setting-3.svg

<svg xmlns="http://www.w3.org/2000/svg" width="32px" height="32px" viewBox="0 0 32 32" version="1.1">
    <title>linear-new-tool-edit-gear-setting-3</title>
    <g id="linear-new-tool-edit-gear-setting-3" stroke-width="1" fill-rule="evenodd">
        <path d="M20.3286639,2.15741014 C22.3761307,2.79704696 24.2510978,3.88547036 25.8240795,5.33512747 C26.043457,5.5373054 26.1611092,5.82687304 26.1449118,6.12476573 L25.918,10.2726042 L29.6282556,12.1544377 C29.8566531,12.2702886 30.0303927,12.4684756 30.1163585,12.7063722 L30.1518736,12.8284323 C30.3825647,13.8620068 30.5,14.9237287 30.5,16 C30.5,17.0769434 30.382418,18.1393182 30.1514422,19.1735002 C30.086304,19.4651526 29.8941435,19.7123887 29.6275903,19.8474944 L25.918,21.7266042 L26.1449118,25.8752343 C26.1587953,26.1305709 26.0743403,26.3797911 25.9117767,26.573105 L25.8240795,26.6648725 C24.2508203,28.1147854 22.3754726,29.2033342 20.3275905,29.8429252 C20.0427534,29.931885 19.7330703,29.8889912 19.483136,29.7259609 L16,27.4536042 L12.516864,29.7259609 C12.3026346,29.8657012 12.0445081,29.9171778 11.7957571,29.8730123 L11.6724095,29.8429252 C9.62500138,29.2034823 7.75004422,28.1152883 6.1770031,26.6658702 C5.95763579,26.4637426 5.83995503,26.1742378 5.85608467,25.8763831 L6.081,21.7266042 L2.3720396,19.8464198 C2.1436081,19.7305893 1.96983355,19.5324026 1.88384389,19.294493 L1.84831784,19.1724254 C1.61750039,18.1385813 1.5,17.0765696 1.5,16 C1.5,14.9237287 1.61743528,13.8620068 1.84812639,12.8284323 C1.91321236,12.536825 2.10528066,12.2895971 2.3717444,12.1544377 L6.081,10.2726042 L5.85608467,6.1236169 C5.84225926,5.8683129 5.92674354,5.61914347 6.0893079,5.42587516 L6.1770031,5.33412984 C7.75004422,3.88471167 9.62500138,2.79651775 11.6724095,2.15707484 C11.9572466,2.06811502 12.2669297,2.11100881 12.516864,2.2740391 L16,4.5456042 L19.4842754,2.27425947 C19.7342107,2.11128823 20.0438637,2.06843741 20.3286639,2.15741014 Z M20.171,4.2126042 L16.546197,6.57765673 C16.214183,6.79414766 15.7856402,6.79411172 15.4536625,6.57756511 L11.829,4.2126042 L11.4655412,4.34757213 C10.2778244,4.810144 9.1690722,5.45273451 8.17640947,6.25044363 L7.879,6.4966042 L8.11311632,10.8159265 C8.13216186,11.1676271 7.96502244,11.4998367 7.67945375,11.6952102 L7.56694645,11.7618318 L3.707,13.7196042 L3.63392906,14.1627648 C3.56724093,14.6158274 3.5252499,15.0741851 3.50842239,15.5364644 L3.5,16 C3.5,16.6198263 3.54503648,17.2334914 3.63400285,17.8377364 L3.707,18.2806042 L7.56682942,20.2381088 C7.8810054,20.3974176 8.0852118,20.7082793 8.11166215,21.0533132 L8.11311632,21.1840735 L7.879,25.5026042 L8.17640947,25.7495564 C9.1690722,26.5472655 10.2778244,27.189856 11.4655412,27.6524279 L11.829,27.7866042 L15.4536625,25.4224349 C15.7487991,25.2299195 16.1202529,25.2085289 16.4323489,25.3582631 L16.5463375,25.4224349 L20.17,27.7866042 L20.534642,27.6523565 C21.7226251,27.1896592 22.8316038,26.5468619 23.8244274,25.7488839 L24.121,25.5016042 L23.8868956,21.1842931 C23.8677637,20.8324307 24.0349955,20.500052 24.3207402,20.304657 L24.4333173,20.2380344 L28.291,18.2816042 L28.3659047,17.8383646 C28.4326754,17.3850288 28.4747186,16.9263899 28.4915671,16.4638239 L28.5,16 C28.5,15.3803452 28.4549884,14.7668482 28.3660709,14.1627648 L28.292,13.7196042 L24.4330536,11.7618318 C24.118873,11.6024689 23.9147019,11.2915443 23.8883218,10.9464779 L23.8868956,10.8157069 L24.121,6.4976042 L23.8245439,6.25120977 C22.8319037,5.45335979 21.7231466,4.81063402 20.5354037,4.34794013 L20.171,4.2126042 Z M16,10 C19.3137085,10 22,12.6862915 22,16 C22,19.3137085 19.3137085,22 16,22 C12.6862915,22 10,19.3137085 10,16 C10,12.6862915 12.6862915,10 16,10 Z M16,12 C13.790861,12 12,13.790861 12,16 C12,18.209139 13.790861,20 16,20 C18.209139,20 20,18.209139 20,16 C20,13.790861 18.209139,12 16,12 Z" id="&#24418;&#29366;" fill-rule="nonzero" />
    </g>
</svg>

<svg xmlns="http://www.w3.org/2000/svg" viewBox="0 0 32 32"><path fill="currentColor" d="M20.329 2.157a14.485 14.485 0 0 1 5.495 3.178 1 1 0 0 1 .32.79l-.226 4.148 3.71 1.881a1 1 0 0 1 .488.552l.036.122c.23 1.034.348 2.096.348 3.172 0 1.077-.118 2.14-.349 3.174a1 1 0 0 1-.523.673l-3.71 1.88.227 4.148a1 1 0 0 1-.233.698l-.088.092a14.485 14.485 0 0 1-5.496 3.178 1 1 0 0 1-.845-.117L16 27.454l-3.483 2.272a1 1 0 0 1-.721.147l-.124-.03a14.485 14.485 0 0 1-5.495-3.177 1 1 0 0 1-.32-.79l.224-4.15-3.709-1.88a1 1 0 0 1-.488-.552l-.036-.122A14.547 14.547 0 0 1 1.5 16c0-1.076.117-2.138.348-3.172a1 1 0 0 1 .524-.674l3.709-1.881-.225-4.15a1 1 0 0 1 .233-.697l.088-.092a14.485 14.485 0 0 1 5.495-3.177 1 1 0 0 1 .845.117L16 4.546l3.484-2.272a1 1 0 0 1 .845-.117m-.158 2.056-3.625 2.365a1 1 0 0 1-1.092 0l-3.625-2.365-.363.135a12.485 12.485 0 0 0-3.29 1.902l-.297.247.234 4.319a1 1 0 0 1-.434.88l-.112.066-3.86 1.958-.073.443c-.067.453-.109.911-.126 1.373L3.5 16c0 .62.045 1.233.134 1.838l.073.443 3.86 1.957a1 1 0 0 1 .545.815l.001.131-.234 4.319.297.247c.993.797 2.102 1.44 3.29 1.902l.363.135 3.625-2.365a1 1 0 0 1 .978-.064l.114.064 3.624 2.365.365-.135a12.485 12.485 0 0 0 3.29-1.903l.296-.247-.234-4.318a1 1 0 0 1 .434-.88l.112-.066 3.858-1.956.075-.444c.067-.453.109-.912.126-1.374L28.5 16c0-.62-.045-1.233-.134-1.837l-.074-.443-3.859-1.958a1 1 0 0 1-.545-.816l-.001-.13.234-4.318-.296-.247a12.485 12.485 0 0 0-3.29-1.903zM16 10a6 6 0 1 1 0 12 6 6 0 0 1 0-12m0 2a4 4 0 1 0 0 8 4 4 0 0 0 0-8"/></svg>
